X:4056
T:Mash'Em
O:england
M:6/8
C:
S:Berkeley Morris
N:c.f. Constant Billy and None So Pretty
A:FieldTown
R:Jig
%P:A.(A$^2$B$^2$)$^4$
P:A.(A2B2)4
K:G
I:speed 300
P:A
D  | G2 d  B>GB  | cBc  AFD  | B>AG  EFG   | DEF    G2    ||\
P:B
z  | B>cd  e2 z  | A>Bc d2 z | B>cd  e2 z  | ABc    d>ef  |\
g2 d  B>GB  | cBc  AFD  | B>AG  EFG   | DEF    G2    ||


